X:1
T:Title
L:1/8
Q:1/4=120
M:none
K:D
V:1 treble nm="Part_1"
V:1
 z2!mf! d(f/e/ Md)a (d'/ b''4 f'/)e'/d'/ c'2 | a'ag'a (f'/e'/)d'/c'/ d'/a/f/e/ | %2
 d(f/e/ d)a (^g/a/)b/c'/ d'2 | c''/(a'/^g'/a'/) b'e' a' z z2 | %4
!p! (f/e/d/e/ f/!>!g/a/b/ c'/b/c'/d'/e') z | (g/f/e/f/ g/a/b/c'/ d'/c'/d'/e'/f') z | %6
 (!>!f'/e'/!<(!d') (!>!a'/g'/f') (!>!d''/c''/)d''/e''/f'' z | %7
 (!>!a'/g'/=f') (!>!=c''/_b'/a') (!>!=f''/e''/)f''/g''/a''!<)! z | %8
!f! (3f''(c''e'') (3d''(^g'b') (3a'(^e'g') (3f'd'a | z a a'(f'/e'/ d'2) z2 | %10
[K:F] z2!p! (a2 M=f'2 e'/d'/ x | ^c') z !>!a'2-!<(! a'(b'/a'/ ^g'!<)!a' | %12
 d'') z !>!f''2- (3f''!>(!(e''d'' (3c''b'!>)!a' | ^g'4) z2 x2 | a'aa'a (!>!f'/e'/d'/^c'/ d'2) | %15
 b'bb'b (!>!g'/f'/e'/d'/ ^c'2) | z2!mf! (a'2!<(! f''2 e''/d''/ x!<)! | %17
 ^c'') z !>!a''4 !tenuto!a'2 | d''a'!>(!g'f' e'2- (3e'(f'!>)!e' | d'4) z!mf! a x2 | %20
[K:D] d'(f'/e'/ d')a' (d''/f''/)e''/d''/ c''2 | %21
!mf! b'g''a'f'' (e''/!>(!d''/c''/b'/ a'/g'/f'/!>)!e'/ |!p! d')a/-b/ a!>!d' !>!=f'=c'/-d'/ c'f' | %23
 ^f'd'/-e'/ d'a' =c''a'!<)!!<(! !>!!tenuto!=f''2 |!f! ^f''a'/-b'/ a'f'' e''a'/-b'/ a'e'' | %25
 (3d''(^g'a') (3(b'a')f' d' z !>!d'' z |]!mf! a'a''a'g'' (f''/e''/d''/c''/ d''/a'/f'/e'/) | %27
 (d'/e'/d'/c'/ d'/f'/a'/c''/) (d''/c''/)d''/e''/f'' z | %28
 (=f'/g'/f'/e'/!<(! f'/a'/=c''/e''/) (=f''/e''/)f''/g''/!<)! a''/ z x/ | %29
!f! (a''/g''/)f''/e''/ f''d'' (a'/g'/)f'/e'/ f'd' | (3z fd (3(f!<(!a)c' (3e'd'f' (3(a'c'')e''!<)! | %31
 d'' z (3z!mp! (^g!>!a) d z z2 |] %32

